app/img/partner-10.svg

<svg width="110" height="69" viewBox="0 0 110 69" fill="none" xmlns="http://www.w3.org/2000/svg">
<g clip-path="url(#clip0)">
<path fill-rule="evenodd" clip-rule="evenodd" d="M92.5585 67.8214V53.2774H86.5511V67.8214H92.5585ZM60.7545 61.7824V53.4975H54.9317V59.8307C54.9317 61.6715 54.8581 62.1876 54.7477 62.6663C54.3422 63.9922 52.9415 64.58 51.5047 64.58C49.5151 64.58 48.5936 63.8071 48.2249 62.5922C48.1145 62.1882 48.0777 61.7463 48.0409 61.3043C48.0041 60.8256 48.0409 60.3094 48.0409 59.7584V53.4981H42.1445V61.8198C42.1445 63.6986 42.7715 65.0974 43.8028 66.0542C45.5715 67.7853 48.5568 68.3008 51.3207 68.3008C54.6741 68.3008 57.2538 67.8221 59.0962 66.0181C60.0551 65.0968 60.7545 63.8819 60.7545 61.7824ZM32.1573 60.7514C31.8653 60.7007 31.5695 60.6763 31.2732 60.6785H24.64C24.3081 60.6785 23.9394 60.7153 23.7553 60.7514C23.8658 60.6404 24.0872 60.4204 24.3081 60.1256L27.2928 55.1911C27.6983 54.5291 27.8824 54.0872 27.956 53.9033C28.0296 54.0872 28.2136 54.5291 28.6192 55.2292L31.6781 60.2004C31.826 60.4204 32.0468 60.6404 32.1573 60.7514ZM43.2868 67.8214L30.0198 47.9391H22.5762L24.529 50.2586C24.5658 50.2953 24.64 50.3315 24.713 50.3695C24.6394 50.4063 24.5658 50.4424 24.529 50.4792L12.9577 67.8214H19.6645L21.4706 64.8387C21.5443 64.6916 21.5811 64.5439 21.5811 64.4709C21.6547 64.4709 21.8394 64.5439 22.0234 64.5439H34.0002C34.1843 64.5439 34.3315 64.5071 34.4051 64.4709C34.3984 64.5745 34.4241 64.6775 34.4787 64.7658L36.3585 67.8214H43.2868ZM84.9302 60.3475C84.9302 58.7268 84.2664 56.8486 82.2032 54.2343L77.2277 47.9384H70.2994L74.2424 52.3568C74.9062 53.0935 75.7534 53.7556 75.7534 53.7556C74.7958 53.2026 73.5798 52.9826 72.6215 52.9826C70.3368 52.9826 68.0141 53.4613 65.9515 54.6033C63.7398 55.817 62.2656 57.8429 62.2656 60.5314C62.2656 62.5928 63.187 64.1767 64.3662 65.3916C67.0202 68.0421 71.8466 68.3002 73.616 68.3002C76.2319 68.3002 80.3228 67.7111 82.6455 65.6123C84.0094 64.36 84.9302 62.6302 84.9302 60.3475ZM79.1811 60.5314C79.1811 62.0411 78.1854 63.1818 76.9326 63.8077C75.9007 64.3606 74.6841 64.5077 73.616 64.5077C72.5479 64.5077 71.2945 64.2864 70.2626 63.7709C69.0098 63.1451 68.0509 61.9302 68.0509 60.6043C68.0509 59.0216 69.2668 57.7687 70.7049 57.1428C71.5896 56.7389 72.6583 56.5912 73.5049 56.5912C74.3166 56.5912 75.4958 56.7009 76.4172 57.0699C78.0762 57.7687 79.1811 59.0945 79.1811 60.5314ZM90.65 0.535794C86.3352 0.528834 82.1454 1.98327 78.7643 4.66175C75.3834 1.9831 71.1935 0.528637 66.8786 0.535794C62.564 0.529123 58.3744 1.98354 54.9935 4.66175C51.6129 1.98297 47.4231 0.528483 43.1084 0.535794C38.7938 0.529123 34.6042 1.98354 31.2233 4.66175C27.8424 1.98345 23.6528 0.529024 19.3382 0.535794C8.75016 0.535794 0.1698 9.1081 0.1698 19.6876C0.1698 30.2659 8.74953 38.8394 19.3382 38.8394C23.6528 38.846 27.8423 37.3916 31.2233 34.7135C34.6042 37.3918 38.7938 38.8462 43.1084 38.8394C47.4231 38.8466 51.6128 37.3921 54.9935 34.7135C58.3744 37.3917 62.564 38.8461 66.8786 38.8394C71.1935 38.8465 75.3834 37.3921 78.7643 34.7135C82.1453 37.3921 86.3352 38.8465 90.65 38.8394C101.238 38.8394 109.818 30.2665 109.818 19.6876C109.818 9.10873 101.238 0.535794 90.65 0.535794ZM28.087 31.5849C25.6445 33.3651 22.593 34.4516 19.3382 34.4516C11.1702 34.4516 4.56074 27.8485 4.56074 19.6876C4.56074 11.5267 11.1702 4.92293 19.3382 4.92293C22.593 4.92293 25.6426 6.01005 28.087 7.79096C25.3938 11.1715 23.9316 15.3669 23.9406 19.6876C23.9426 24.0067 25.4036 28.1987 28.087 31.5849ZM31.2239 28.46C29.3402 25.923 28.326 22.8465 28.3322 19.6876C28.3242 16.5284 29.3386 13.4513 31.2239 10.9152C33.1089 13.4515 34.1232 16.5285 34.1156 19.6876C34.1216 22.8464 33.1074 25.9229 31.2239 28.46ZM51.8578 31.5849C49.3201 33.4515 46.2497 34.4549 43.0984 34.4473C39.9537 34.4537 36.8902 33.4502 34.3596 31.5849C37.0432 28.199 38.5042 24.0072 38.506 19.6882C38.515 15.3675 37.0528 11.1722 34.3596 7.79159C36.8899 5.9257 39.9536 4.92198 43.0984 4.92854C46.3769 4.92854 49.4059 5.98824 51.8578 7.79159C49.1646 11.1722 47.7024 15.3675 47.7115 19.6882C47.7133 24.0071 49.1743 28.199 51.8578 31.5849ZM54.9935 28.46C53.1098 25.923 52.0956 22.8465 52.1018 19.6876C52.0941 16.5285 53.1084 13.4515 54.9935 10.9152C56.8789 13.4513 57.8935 16.5284 57.8858 19.6876C57.8919 22.8466 56.8775 25.9231 54.9935 28.46ZM75.628 31.5849C73.1761 33.3888 70.1472 34.4473 66.8692 34.4473C63.5913 34.4473 60.5817 33.387 58.1298 31.5849C60.8137 28.1992 62.2747 24.0072 62.2762 19.6882C62.2852 15.3675 60.823 11.1722 58.1298 7.79159C60.5817 5.98886 63.5913 4.92854 66.8692 4.92854C70.1472 4.92854 73.1761 5.98824 75.628 7.79159C72.9352 11.1723 71.473 15.3675 71.4817 19.6882C71.4838 24.0071 72.9448 28.1988 75.628 31.5849ZM78.7649 28.46C76.8812 25.923 75.8671 22.8465 75.8732 19.6876C75.865 16.5284 76.8794 13.4512 78.7649 10.9152C80.6499 13.4515 81.6642 16.5285 81.6567 19.6876C81.6623 22.8464 80.6482 25.9228 78.7649 28.46ZM90.65 34.4516C87.394 34.4516 84.3431 33.3651 81.9012 31.5849C84.5846 28.1989 86.0456 24.0071 86.0476 19.6882C86.0563 15.3675 84.5941 11.1723 81.9012 7.79159C84.3456 6.0113 87.3946 4.92356 90.65 4.92356C98.8168 4.92356 105.427 11.5273 105.427 19.6882C105.427 27.8479 98.8168 34.4516 90.65 34.4516Z" fill="#00F0FF"/>
</g>
<defs>
<clipPath id="clip0">
<rect width="109.676" height="67.7671" fill="white" transform="translate(0.15332 0.53418)"/>
</clipPath>
</defs>
</svg>

<svg width="110" height="69" fill="none" xmlns="http://www.w3.org/2000/svg"><g clip-path="url(#clip0)"><path fill-rule="evenodd" clip-rule="evenodd" d="M92.558 67.821V53.277h-6.007v14.544h6.007zm-31.804-6.039v-8.284h-5.822v6.333c0 1.84-.074 2.357-.184 2.835-.406 1.326-1.806 1.914-3.243 1.914-1.99 0-2.911-.773-3.28-1.988-.11-.404-.147-.846-.184-1.288-.037-.478 0-.995 0-1.546v-6.26h-5.896v8.322c0 1.879.627 3.277 1.658 4.234 1.769 1.731 4.754 2.247 7.518 2.247 3.353 0 5.933-.479 7.775-2.283.96-.921 1.659-2.136 1.659-4.236zm-28.597-1.03a4.952 4.952 0 00-.884-.074H24.64c-.332 0-.7.037-.885.073.11-.11.332-.33.553-.625l2.985-4.935a8.38 8.38 0 00.663-1.288c.074.184.258.626.663 1.326l3.06 4.971c.147.22.368.44.478.551zm11.13 7.07L30.02 47.938h-7.444l1.953 2.32c.037.036.111.072.184.11-.074.037-.147.073-.184.11L12.958 67.821h6.707l1.806-2.982a.975.975 0 00.11-.368c.074 0 .258.073.442.073H34a.997.997 0 00.405-.073.5.5 0 00.074.295l1.88 3.055h6.928zm41.643-7.475c0-1.62-.664-3.498-2.727-6.113l-4.975-6.296h-6.929l3.943 4.419a13.744 13.744 0 001.511 1.399c-.957-.553-2.173-.773-3.132-.773-2.284 0-4.607.478-6.67 1.62-2.211 1.214-3.685 3.24-3.685 5.928 0 2.062.921 3.646 2.1 4.86 2.654 2.651 7.48 2.91 9.25 2.91 2.616 0 6.707-.59 9.03-2.689 1.363-1.252 2.284-2.982 2.284-5.264zm-5.749.184c0 1.51-.996 2.65-2.248 3.277-1.032.553-2.249.7-3.317.7s-2.322-.222-3.353-.737c-1.253-.626-2.212-1.84-2.212-3.167 0-1.582 1.216-2.835 2.654-3.461.885-.404 1.953-.552 2.8-.552.812 0 1.99.11 2.912.479 1.66.699 2.764 2.024 2.764 3.461zM90.65.536a19.092 19.092 0 00-11.886 4.126A19.089 19.089 0 0066.88.536a19.093 19.093 0 00-11.886 4.126A19.085 19.085 0 0043.108.536a19.093 19.093 0 00-11.885 4.126A19.092 19.092 0 0019.338.536C8.75.536.17 9.108.17 19.688c0 10.578 8.58 19.151 19.168 19.151a19.095 19.095 0 0011.885-4.125 19.092 19.092 0 0011.885 4.125 19.087 19.087 0 0011.886-4.125 19.093 19.093 0 0011.885 4.125 19.09 19.09 0 0011.885-4.125 19.09 19.09 0 0011.886 4.125c10.588 0 19.168-8.572 19.168-19.151 0-10.58-8.58-19.152-19.168-19.152zM28.087 31.585a14.89 14.89 0 01-8.749 2.867c-8.168 0-14.777-6.603-14.777-14.764S11.17 4.923 19.338 4.923a14.89 14.89 0 018.749 2.868 19.029 19.029 0 00-4.146 11.897 19.17 19.17 0 004.146 11.897zm3.137-3.125a14.667 14.667 0 01-2.892-8.772 14.642 14.642 0 012.892-8.773 14.647 14.647 0 012.892 8.773 14.67 14.67 0 01-2.892 8.772zm20.634 3.125a14.723 14.723 0 01-8.76 2.862 14.678 14.678 0 01-8.738-2.862 19.165 19.165 0 004.146-11.897A19.029 19.029 0 0034.36 7.792a14.673 14.673 0 018.738-2.863c3.279 0 6.308 1.06 8.76 2.863a19.028 19.028 0 00-4.146 11.896 19.166 19.166 0 004.146 11.897zm3.136-3.125a14.667 14.667 0 01-2.892-8.772 14.646 14.646 0 012.892-8.773 14.644 14.644 0 012.892 8.773 14.666 14.666 0 01-2.893 8.772zm20.634 3.125a14.723 14.723 0 01-8.759 2.862c-3.278 0-6.287-1.06-8.74-2.862a19.161 19.161 0 004.147-11.897A19.029 19.029 0 0058.13 7.792a14.673 14.673 0 018.74-2.863 14.73 14.73 0 018.758 2.863 19.033 19.033 0 00-4.146 11.896 19.17 19.17 0 004.146 11.897zm3.137-3.125a14.668 14.668 0 01-2.892-8.772 14.639 14.639 0 012.892-8.773 14.648 14.648 0 012.892 8.773 14.674 14.674 0 01-2.892 8.772zm11.885 5.992a14.885 14.885 0 01-8.749-2.867 19.168 19.168 0 004.147-11.897A19.032 19.032 0 0081.9 7.792a14.893 14.893 0 018.749-2.868c8.167 0 14.777 6.603 14.777 14.764 0 8.16-6.61 14.764-14.777 14.764z" fill="#00F0FF"/></g><defs><clipPath id="clip0"><path fill="#fff" transform="translate(.153 .534)" d="M0 0h109.676v67.767H0z"/></clipPath></defs></svg>
